content/packer/v1.10.x/img/product-features-list/portability.svg

<svg width="72" height="72" viewBox="0 0 72 72" fill="none" xmlns="http://www.w3.org/2000/svg">
<rect width="72" height="72" fill="#F0FAFF"/>
<g clip-path="url(#clip0)">
<path fill-rule="evenodd" clip-rule="evenodd" d="M32.5 35.25C32.5 34.1454 33.3954 33.25 34.5 33.25H45.5C46.6046 33.25 47.5 34.1454 47.5 35.25V41.75C47.5 42.8546 46.6046 43.75 45.5 43.75H34.5C33.3954 43.75 32.5 42.8546 32.5 41.75V35.25Z" stroke="#63D0FF" stroke-width="1.5" stroke-linecap="round" stroke-linejoin="round"/>
<path d="M37 46.75H43" stroke="#63D0FF" stroke-width="1.5" stroke-linecap="round" stroke-linejoin="round"/>
<path d="M40 43.75V46.75" stroke="#63D0FF" stroke-width="1.5" stroke-linecap="round" stroke-linejoin="round"/>
<path d="M41 30L31 30C29.8954 30 29 30.8954 29 32V39" stroke="#63D0FF" stroke-width="1.5" stroke-linecap="round" stroke-linejoin="round"/>
<path d="M35 27H28C26.8954 27 26 27.8954 26 29V34" stroke="#63D0FF" stroke-width="1.5" stroke-linecap="round" stroke-linejoin="round"/>
</g>
<defs>
<clipPath id="clip0">
<rect width="24" height="24" fill="white" transform="translate(24 24)"/>
</clipPath>
</defs>
</svg>

<svg xmlns="http://www.w3.org/2000/svg" width="72" height="72" fill="none" viewBox="0 0 72 72" xmlns:xlink="http://www.w3.org/1999/xlink">
  <path fill="#F0FAFF" d="M0 0h72v72H0z"/>
  <g stroke="#63D0FF" stroke-linecap="round" stroke-linejoin="round" stroke-width="1.5" clip-path="url(#a)">
    <path d="M32.5 35.25a2 2 0 0 1 2-2h11a2 2 0 0 1 2 2v6.5a2 2 0 0 1-2 2h-11a2 2 0 0 1-2-2z" clip-rule="evenodd"/>
    <path d="M37 46.75h6m-3-3v3M41 30H31a2 2 0 0 0-2 2v7"/>
    <path d="M35 27h-7a2 2 0 0 0-2 2v5"/>
  </g>
  <defs>
    <clipPath id="a">
      <path fill="#fff" d="M24 24h24v24H24z"/>
    </clipPath>
  </defs>
</svg>
